assets/img/svg/share-apple.svg

<?xml version="1.0" encoding="UTF-8" standalone="no"?><!DOCTYPE svg PUBLIC "-//W3C//DTD SVG 1.1//EN" "http://www.w3.org/Graphics/SVG/1.1/DTD/svg11.dtd"><svg width="100%" height="100%" viewBox="0 0 26 35" version="1.1" xmlns="http://www.w3.org/2000/svg" xmlns:xlink="http://www.w3.org/1999/xlink" xml:space="preserve" xmlns:serif="http://www.serif.com/" style="fill-rule:evenodd;clip-rule:evenodd;stroke-linejoin:round;stroke-miterlimit:1.41421;"><path d="M18.3,8.7l-5.3,-5.3l-5.3,5.3l-1.4,-1.4l6.7,-6.7l6.7,6.7l-1.4,1.4Z" style="fill-rule:nonzero;"/><rect x="12" y="2" width="2" height="21" style="fill-rule:nonzero;"/><path d="M23,35l-20,0c-1.7,0 -3,-1.3 -3,-3l0,-18c0,-1.7 1.3,-3 3,-3l7,0l0,2l-7,0c-0.6,0 -1,0.4 -1,1l0,18c0,0.6 0.4,1 1,1l20,0c0.6,0 1,-0.4 1,-1l0,-18c0,-0.6 -0.4,-1 -1,-1l-7,0l0,-2l7,0c1.7,0 3,1.3 3,3l0,18c0,1.7 -1.3,3 -3,3Z" style="fill-rule:nonzero;"/><clipPath id="_clip1"><rect x="0" y="1" width="26" height="34"/></clipPath><g clip-path="url(#_clip1)"><use xlink:href="#_Image2" x="0" y="1" width="26px" height="34px"/></g><defs><image id="_Image2" width="26px" height="34px" xlink:href="data:image/png;base64,iVBORw0KGgoAAAANSUhEUgAAABoAAAAiCAYAAABBY8kOAAAACXBIWXMAAA7EAAAOxAGVKw4bAAAAm0lEQVRIie2X3QrAIAiFNXz/V95uYtSYeZRqEHrVhccvfwIjctpVzatjL6QTM8N62FHLAoVBTlapEFjxQNqA7Rnp2RCkQSIwFWRBIjDVvoTaeIchI3gkqDkMs0yIsLS1PqHaMr22ymXkTfYGGWnaJJ4eRSCeS2wbhgQl6GCQ2C69RR/2eaVLUIJ+BK3YHboldMdyQlR/E6thzMw3OlpoHLVWnGYAAAAASUVORK5CYII="/></defs></svg>

<svg viewBox="0 0 26 35" xmlns="http://www.w3.org/2000/svg" xmlns:xlink="http://www.w3.org/1999/xlink" fill-rule="evenodd" clip-rule="evenodd" stroke-linejoin="round" stroke-miterlimit="1.41421"><path d="M18.3 8.7L13 3.4 7.7 8.7 6.3 7.3 13 .6l6.7 6.7-1.4 1.4z" fill-rule="nonzero"/><path fill-rule="nonzero" d="M12 2H14V23H12z"/><path d="M23 35H3c-1.7 0-3-1.3-3-3V14c0-1.7 1.3-3 3-3h7v2H3c-.6 0-1 .4-1 1v18c0 .6.4 1 1 1h20c.6 0 1-.4 1-1V14c0-.6-.4-1-1-1h-7v-2h7c1.7 0 3 1.3 3 3v18c0 1.7-1.3 3-3 3z" fill-rule="nonzero"/><clipPath id="a"><path d="M0 1H26V35H0z"/></clipPath><g clip-path="url(#a)"><use xlink:href="#b" y="1" width="26" height="34"/></g><defs><image id="b" width="26" height="34" xlink:href="data:image/png;base64,iVBORw0KGgoAAAANSUhEUgAAABoAAAAiCAYAAABBY8kOAAAACXBIWXMAAA7EAAAOxAGVKw4bAAAAm0lEQVRIie2X3QrAIAiFNXz/V95uYtSYeZRqEHrVhccvfwIjctpVzatjL6QTM8N62FHLAoVBTlapEFjxQNqA7Rnp2RCkQSIwFWRBIjDVvoTaeIchI3gkqDkMs0yIsLS1PqHaMr22ymXkTfYGGWnaJJ4eRSCeS2wbhgQl6GCQ2C69RR/2eaVLUIJ+BK3YHboldMdyQlR/E6thzMw3OlpoHLVWnGYAAAAASUVORK5CYII="/></defs></svg>
